X:1
T:Chi vuol comprar la bella calandrina
T:Niccolo Jommelli
%%score 1 { 2 | 3 } 4
L:1/8
Q:1/4=60
M:2/4
K:C
V:1 treble nm="Mezzosoprano"
V:2 treble nm="Piano" snm="Pno."
V:3 bass 
V:4 treble nm="Piano" snm="Pno."
V:1
"^Adagio""^Adagio" z4 | z4 | z4 | z4 | z4 | z4 | z4 | z4 | z4 | z4 | z4 | z4 | z4 | z4 | z4 | z4 | %16
 z4 | z4 | z4 | z4 | z4 | z4 | z4 | z4 | z4 | z4 | z4 | z4 | z4 | z4 | z4 | z4 | z4 | z4 | z4 | %35
 z4 | z4 | z4 | z4 | z4 | z4 | z4 | z4 | z4 | z4 | z4 | z4 | z4 | z4 | z4 | z4 | z4 | z4 | z4 | %54
 z4 | z4 | z4 | z4 | z4 | z4 | z4 | z4 | z4 | z4 | z4 | z4 | z4 | z4 | z4 | z4 | z4 | z4 | z4 | %73
 z4 | z4 | z4 | z4 | z4 | z4 | z4 | z4 | z4 | z4 | z4 | z4 | z4 | z4 | z4 | z4 | z4 | z4 | z4 | %92
 z4 | z4 | z4 | z4 | z4 | z4 | z4 | z4 | z4 | z4 | z4 | z4 | z4 | z4 |] %106
V:2
 z3 (e/>c/) | gg gg/>e/ | c'c' c'c' | (Tc'2 c'3/2)b/4a/4 | g z z G | CE Gc | ec GE | [^F,C]4 | %8
 [G,B,] z z B/>G/ | dB z B/>G/ | [Bd][df] z (d/>G/) | [df][Bd] z d/>G/ | [df][fa] z ([fa]/>[df]/) | %13
 [ce]c' cc | [cd]2 f/d/c/B/ | cc' cc | [cd]2 f/d/c/B/ | c2 [EG] z/ [FA]/ | [CE] z/ [DF]/ B, z/ D/ | %19
 C z/ D/ C z/ D/ | CC CC | C2 z e/>c/ | gg gg/>e/ | c'c' c'c' | (c'2 c'3/2)b/4a/4 | g2 z G | %26
 CE Gc | ec GE | ([^F,C]4 | [G,B,]2) z2 | [B,DG]2 [B,DG][B,DG] | [B,DA]2 [B,DG][B,DG] | ([EG]3 E) | %33
 A,[A,^F]/[G,E]/ [^F,D] z | [A,^FA]4 | [^F,A,]4 | [G,B,]({AG)^F}G Bd | [EGA]2 e/c/B/A/ | %38
 [GB]>c A2 | [GB]({AG)^F}G Bd | [EGA]2 e/c/B/A/ | [GB]>c A2 | GD G,2 | z4 | ([G,B,D]4 | %45
 [G,B,D]2) z G | cG ED/C/ | G z/ G/ ED/C/ | G z/ G/ ED/C/ | G2 z2 | [B,G]4 | [DBd]4 | z G ce | %53
 [DFA]2 G/F/E/D/ | [CE]>F D2 | [CE]({AG)^F}[EG] [Gc][ce] | [DFA]2 G/F/E/D/ | [CE]>F D2 | Cc' cc | %59
 [cd]2 a/f/e/d/ | [ce]c' cc | [cd]2 f/d/c/B/ | c(G/E/) CC | C2 z (e/>c/) | gg g(g/>e/) | %65
 c'c' c'c' | c'2 c'3/2b/4a/4 | g2 z G | CE Gc | ec GE | ([^F,C]4 | [G,B,]2) z2 | %72
 [B,DG]2 [B,DG][B,DG] | [CDA]2 [CDG][CDG] | ([EG]3 E) | A,[A,^F]/[G,E]/ [^F,D] z | [A,^FA]4 | %77
 [^F,A,]4 | [G,B,]({AG)^F}G Bd | [EGA]2 e/c/B/A/ | [GB]>c A2 | [GB]({AG)^F}G Bd | A2 e/c/B/A/ | %83
 [GB]>c A2 | GD G,2 | z4 | ([G,B,D]4 | [G,B,D]2) z G | cG ED/C/ | G z/ G/ ED/C/ | G z/ G/ ED/C/ | %91
 G2 z2 | [B,G]4 | [DBd]4 | z({AG)^F} G ce | [DFA]2 [DG]/F/E/D/ | [CE]>F D2 | %97
 [CE]({AG)^F}[EG] [Gc][ce] | [DFA]2 [DG]/F/E/D/ | [CE]>F D2 | Cc' cc | [cd]2 a/f/e/d/ | [ce]c' cc | %103
 [cd]2 f/d/c/B/ | c(G/E/) CC | C2 z2 |] %106
V:3
 z4 | z [CE] [B,D][CE] | C,[CE]/[B,D]/ [CE][EG] | [CEG]4 | [CEG] z z2 | z4 | z4 | ([A,,C,]4 | %8
 [G,,D,])G,/>^F,/ G,G,, | z (G,/>^F,/) G,G,, | z G,/>^F,/ G,G,, | z (G,/>^F,/) G,G,, | %12
 z (G,/>^F,/) G,G,, | C,[E,G,] [F,A,][E,G,] | (F,G,/)A,/ G,G,, | C,([E,G,] [F,A,])[E,G,] | %16
 (F,G,/)A,/ G,G,, | C,C, C,C, | C,C, C,C, | C,,C,, E,,A,, | %20
 [C,,C,E,][C,,C,E,G,] [C,,C,E,G,][C,,C,E,G,] | [C,,C,E,G,]2 z2 |[K:treble] z [CE] [B,D][CE] | %23
[K:bass] C,,[K:treble][FA] [EG][DF] | [CEG-]4 | [CEG]2 z2 |[K:bass] z4 | z4 | ([A,,C,]4 | %29
 [G,,D,]2) z2 | G,,2 G,2 | z ^F, G,G,, | C,C, C,^C, | D,D,, D,, z | [D,,D,]4 | [D,,D,]4 | %36
 [G,,D,]2 z2 | z C, C,C, | D,D,, D,,D,, | G,,2 z2 | z C, C,C, | D,D,, D,,D,, | G,,2 z2 | z4 | %44
 (G,,4 | G,,2) z G, | CG, E,D,/C,/ | G, z/ G,/ E,D,/C,/ | G, z/ G,/ E,D,/B,,/ | G,2 z2 | [G,,D,]4 | %51
 G,,4 | C,2 z2 | z B,, B,,B,, | C,A, F,G, | C,2 z2 | z B,, B,,B,, | C,[A,,A,] [F,,F,][G,,G,] | %58
 [C,,C,]([C,E,] [D,F,])[E,G,] | (F,G,/)A,/ G,G,, | C,([C,E,] [D,F,])[E,G,] | F,(G,/A,/) G,G,, | %62
 [C,E,G,]2 [C,,C,][C,,C,] | [C,,C,]2 z2 |[K:treble] z [CE] [B,D][CE] | %65
[K:bass] C,,[K:treble][FA] [EG][DF] | ([CEG]4 | [CEG]2) z2 | z4 |[K:bass] z4 | ([A,,C,]4 | %71
 [G,,D,]2) z2 | G,,2 G,2 | z ^F, G,G,, | C,C, C,^C, | D,D,, D,, z | [D,,D,]4 | [D,,D,]4 | %78
 [G,,D,]2 z2 | z C, C,C, | D,D,, D,,D,, | G,,2 z2 | z C, C,C, | D,D,, D,,D,, | G,,2 z2 | z4 | %86
 (G,,4 | G,,2) z G, | CG, E,D,/C,/ | G, z/ G,/ E,D,/C,/ | G, z/ G,/ E,D,/C,/ | G,2 z2 | [G,,D,]4 | %93
 G,,4 | C,2 z2 | z B,, B,,B,, | C,A, F,G, | C,2 z2 | z B,, B,,B,, | C,[A,,A,] [F,,F,][G,,G,] | %100
 [C,,C,]([C,E,] [D,F,])[E,G,] | (F,G,/)B,/ G,G,, | C,([C,E,] [D,F,])[E,G,] | F,(G,/A,/) G,G,, | %104
 [C,E,G,]2 [C,,C,][B,,,C,] | [B,,,C,]2 z2 |] %106
V:4
 z4 | z4 | z4 | z4 | z4 | z4 | z4 | z4 | z4 | z4 | z4 | z4 | z4 | z4 | z4 | z4 | z4 | z4 | z4 | %19
 z4 | z4 | z2 z (E/>C/) | GG G(G/>E/) | cc cc | (c2 c3/2)B/4A/4 | G2 z G | z4 | z4 | z4 | z4 | z4 | %31
 z4 | z4 | z4 | z4 | z4 | z4 | z4 | z4 | z4 | z4 | z4 | z4 | z4 | z4 | z4 | z4 | z4 | z4 | z4 | %50
 z4 | z4 | z4 | z4 | z4 | z4 | z4 | z4 | z4 | z4 | z4 | z4 | z4 | z4 | z4 | z4 | z4 | z4 | z4 | %69
 z4 | z4 | z4 | z4 | z4 | z4 | z4 | z4 | z4 | z4 | z4 | z4 | z4 | z4 | z4 | z4 | z4 | z4 | z4 | %88
 z4 | z4 | z4 | z4 | z4 | z4 | z4 | z4 | z4 | z4 | z4 | z4 | z4 | z4 | z4 | z4 | z4 | z4 |] %106

